X: 22
T:Fox & Geese
M:6/8
L:1/8
Q:124
Z:Brian Martin <brian_martin12345@yahoo.com> Winterbourn Downs Morris  (rcvd Jan 2003)
K:G
G2d dcB | A2B c3 | BAG GAB | A2G FED | G2d dcB | A2B c3 | BAG c2B | AGF G3 :|
F2G AFD | F2G ABc | d2B d2B | dBG dBG | F2G AFD | F2G ABc | dBG c2B | AGF G3 :|
